X:31
T:William and Nancy
M:6/8
L:1/8
K:Bmajor
F|"B"B2BBdf|"E"g2g"B"fdB|"F7"c2f"B"dcB|"E"G2A"B"B2|f|"B"g2fd2f|"E"bag"F7"f2f|"B"g2fd2f|"c7""E"bag"F7""F"f2e|"B""Gm"d2ddef|"E"g2g"B"fdB|"F7"c2f"B"dcB|"E"G2A"B"B2|f|"B"f3"E"g3|"B"f3"Gm"d3|"B"f3"E"b3/2a3/2|"E"g3"B"f3|"F7"f3"B"g3|"B"f3d2f|"c7""E"bag"F7""F"f2e|"B"d2ddef|"E"g2g"B"fdB|"F7"c2f"B"dcB|"E"G2A"B"B2|]

